X: 40469
T: Tom Ward's Downfall
R: reel
M: 4/4
K: Gmajor
BG G2 GEDG|EDEG A2 GE|DEGA B2 Bd|ed d2 egdc|
BGGF GEDG|EDEG ABGE|DEGA B2 Bd|1 egdc BGGA:|2 egdc BAGB||
|:dggf gedg|eaag a2 ga|bg g2 agef|gedc BGGB|
dggf gedg|eaag a2 ga|bggb agef|1 gedc BAGB:|2 gedc BGGA||

